X:18011
T:Rose Tree, The
R:Polka
C:Trad.
O:England
Z:Paul Hardy's Session Tunebook 2015 (see www.paulhardy.net). Creative Commons cc by-nc-sa licenced.
M:2/2
L:1/4
Q:1/2=90
K:D
f/e/|:"D"dB AF|A/B/A/F/ A2|d d/e/"A7"f/e/d/e/|"A"fe ef/e/|"D"dB AF|A/B/A/F/ A2|dc/d/ "A7"ed/e/|"D"fd d2:|
|:"D"fe fg|"D7"a2 gf|"Em"eb ba|"A7"be ef/e/|"D"dB AF|A/B/A/F/ A2|dc/d/ "A7"ed/e/|"D"fd d2:|

